assets/icons/continue_button.svg

<svg width="220" height="56" viewBox="0 0 220 56" fill="none" xmlns="http://www.w3.org/2000/svg">
<rect width="220" height="56" rx="28" fill="url(#paint0_linear_6607_195)"/>
<rect x="1" y="1" width="218" height="54" rx="27" stroke="url(#paint1_linear_6607_195)" stroke-width="2"/>
<rect x="4.5" y="4.5" width="211" height="47" rx="23.5" fill="url(#paint2_linear_6607_195)" stroke="#073300"/>
<g style="mix-blend-mode:overlay">
<rect x="15" y="7" width="190" height="28" rx="14" fill="url(#paint3_linear_6607_195)"/>
</g>
<path d="M84.9119 26.5795H82.071C82.0331 26.2879 81.9555 26.0246 81.8381 25.7898C81.7206 25.5549 81.5653 25.3542 81.3722 25.1875C81.179 25.0208 80.9498 24.8939 80.6847 24.8068C80.4233 24.7159 80.1335 24.6705 79.8153 24.6705C79.2509 24.6705 78.7642 24.8087 78.3551 25.0852C77.9498 25.3617 77.6373 25.7614 77.4176 26.2841C77.2017 26.8068 77.0938 27.4394 77.0938 28.1818C77.0938 28.9545 77.2036 29.6023 77.4233 30.125C77.6468 30.6439 77.9593 31.036 78.3608 31.3011C78.7661 31.5625 79.2453 31.6932 79.7983 31.6932C80.1089 31.6932 80.3911 31.6534 80.6449 31.5739C80.9025 31.4943 81.1278 31.3788 81.321 31.2273C81.518 31.072 81.679 30.8845 81.804 30.6648C81.9328 30.4413 82.0218 30.1894 82.071 29.9091L84.9119 29.9261C84.8627 30.4413 84.7131 30.9489 84.4631 31.4489C84.2169 31.9489 83.8778 32.4053 83.446 32.8182C83.0142 33.2273 82.4877 33.553 81.8665 33.7955C81.2491 34.0379 80.5407 34.1591 79.7415 34.1591C78.6884 34.1591 77.7453 33.928 76.9119 33.4659C76.0824 33 75.4271 32.322 74.946 31.4318C74.465 30.5417 74.2244 29.4583 74.2244 28.1818C74.2244 26.9015 74.4688 25.8163 74.9574 24.9261C75.446 24.036 76.107 23.3598 76.9403 22.8977C77.7737 22.4356 78.7074 22.2045 79.7415 22.2045C80.446 22.2045 81.0975 22.303 81.696 22.5C82.2945 22.6932 82.821 22.9773 83.2756 23.3523C83.7301 23.7235 84.0994 24.1799 84.3835 24.7216C84.6676 25.2633 84.8438 25.8826 84.9119 26.5795ZM90.5952 34.1648C89.6785 34.1648 88.8906 33.9773 88.2315 33.6023C87.5762 33.2235 87.0705 32.697 86.7145 32.0227C86.3622 31.3447 86.1861 30.5587 86.1861 29.6648C86.1861 28.767 86.3622 27.9811 86.7145 27.3068C87.0705 26.6288 87.5762 26.1023 88.2315 25.7273C88.8906 25.3485 89.6785 25.1591 90.5952 25.1591C91.5118 25.1591 92.2978 25.3485 92.9531 25.7273C93.6122 26.1023 94.1179 26.6288 94.4702 27.3068C94.8262 27.9811 95.0043 28.767 95.0043 29.6648C95.0043 30.5587 94.8262 31.3447 94.4702 32.0227C94.1179 32.697 93.6122 33.2235 92.9531 33.6023C92.2978 33.9773 91.5118 34.1648 90.5952 34.1648ZM90.6122 32.0682C90.9455 32.0682 91.2277 31.9659 91.4588 31.7614C91.6899 31.5568 91.866 31.2727 91.9872 30.9091C92.1122 30.5455 92.1747 30.125 92.1747 29.6477C92.1747 29.1629 92.1122 28.7386 91.9872 28.375C91.866 28.0114 91.6899 27.7273 91.4588 27.5227C91.2277 27.3182 90.9455 27.2159 90.6122 27.2159C90.2675 27.2159 89.9759 27.3182 89.7372 27.5227C89.5024 27.7273 89.3224 28.0114 89.1974 28.375C89.0762 28.7386 89.0156 29.1629 89.0156 29.6477C89.0156 30.125 89.0762 30.5455 89.1974 30.9091C89.3224 31.2727 89.5024 31.5568 89.7372 31.7614C89.9759 31.9659 90.2675 32.0682 90.6122 32.0682ZM99.206 29.0227V34H96.4276V25.2727H99.0696V26.875H99.1662C99.3594 26.3409 99.6889 25.9223 100.155 25.6193C100.621 25.3125 101.176 25.1591 101.82 25.1591C102.433 25.1591 102.965 25.2973 103.416 25.5739C103.871 25.8466 104.223 26.2292 104.473 26.7216C104.727 27.2102 104.852 27.7822 104.848 28.4375V34H102.07V28.983C102.073 28.4981 101.95 28.1193 101.7 27.8466C101.454 27.5739 101.111 27.4375 100.672 27.4375C100.38 27.4375 100.123 27.5019 99.8991 27.6307C99.6795 27.7557 99.509 27.9356 99.3878 28.1705C99.2704 28.4053 99.2098 28.6894 99.206 29.0227ZM111.494 25.2727V27.3182H105.989V25.2727H111.494ZM107.142 23.1818H109.92V31.2557C109.92 31.4261 109.947 31.5644 110 31.6705C110.057 31.7727 110.138 31.8466 110.244 31.892C110.35 31.9337 110.477 31.9545 110.625 31.9545C110.731 31.9545 110.843 31.9451 110.96 31.9261C111.081 31.9034 111.172 31.8845 111.233 31.8693L111.653 33.875C111.521 33.9129 111.333 33.9602 111.091 34.017C110.852 34.0739 110.566 34.1098 110.233 34.125C109.581 34.1553 109.023 34.0795 108.557 33.8977C108.095 33.7121 107.741 33.4242 107.494 33.0341C107.252 32.6439 107.134 32.1534 107.142 31.5625V23.1818ZM112.912 34V25.2727H115.69V34H112.912ZM114.304 24.2557C113.914 24.2557 113.579 24.1269 113.298 23.8693C113.018 23.608 112.878 23.2936 112.878 22.9261C112.878 22.5625 113.018 22.2519 113.298 21.9943C113.579 21.733 113.914 21.6023 114.304 21.6023C114.698 21.6023 115.033 21.733 115.31 21.9943C115.59 22.2519 115.73 22.5625 115.73 22.9261C115.73 23.2936 115.59 23.608 115.31 23.8693C115.033 24.1269 114.698 24.2557 114.304 24.2557ZM120.237 29.0227V34H117.459V25.2727H120.101V26.875H120.197C120.391 26.3409 120.72 25.9223 121.186 25.6193C121.652 25.3125 122.207 25.1591 122.851 25.1591C123.464 25.1591 123.997 25.2973 124.447 25.5739C124.902 25.8466 125.254 26.2292 125.504 26.7216C125.758 27.2102 125.883 27.7822 125.879 28.4375V34H123.101V28.983C123.105 28.4981 122.982 28.1193 122.732 27.8466C122.485 27.5739 122.143 27.4375 121.703 27.4375C121.411 27.4375 121.154 27.5019 120.93 27.6307C120.711 27.7557 120.54 27.9356 120.419 28.1705C120.302 28.4053 120.241 28.6894 120.237 29.0227ZM133.23 30.233V25.2727H136.003V34H133.355V32.375H133.264C133.071 32.9091 132.741 33.3333 132.276 33.6477C131.813 33.9583 131.255 34.1136 130.599 34.1136C130.005 34.1136 129.482 33.9773 129.031 33.7045C128.58 33.4318 128.23 33.0511 127.98 32.5625C127.73 32.0701 127.603 31.4943 127.599 30.8352V25.2727H130.378V30.2898C130.382 30.7633 130.507 31.1364 130.753 31.4091C130.999 31.6818 131.334 31.8182 131.759 31.8182C132.035 31.8182 132.283 31.7576 132.503 31.6364C132.726 31.5114 132.902 31.3314 133.031 31.0966C133.164 30.858 133.23 30.5701 133.23 30.233ZM141.851 34.1648C140.938 34.1648 140.15 33.9848 139.487 33.625C138.828 33.2614 138.321 32.7443 137.964 32.0739C137.612 31.3996 137.436 30.5985 137.436 29.6705C137.436 28.7689 137.614 27.9811 137.97 27.3068C138.326 26.6288 138.828 26.1023 139.476 25.7273C140.124 25.3485 140.887 25.1591 141.766 25.1591C142.387 25.1591 142.955 25.2557 143.47 25.4489C143.985 25.642 144.43 25.928 144.805 26.3068C145.18 26.6856 145.472 27.1534 145.68 27.7102C145.889 28.2633 145.993 28.8977 145.993 29.6136V30.3068H138.408V28.6932H143.408C143.404 28.3977 143.334 28.1345 143.197 27.9034C143.061 27.6723 142.874 27.4924 142.635 27.3636C142.4 27.2311 142.129 27.1648 141.822 27.1648C141.512 27.1648 141.233 27.2348 140.987 27.375C140.741 27.5114 140.546 27.6989 140.402 27.9375C140.258 28.1723 140.182 28.4394 140.175 28.7386V30.3807C140.175 30.7367 140.245 31.0492 140.385 31.3182C140.525 31.5833 140.724 31.7898 140.982 31.9375C141.239 32.0852 141.546 32.1591 141.902 32.1591C142.148 32.1591 142.372 32.125 142.572 32.0568C142.773 31.9886 142.946 31.8883 143.089 31.7557C143.233 31.6231 143.341 31.4602 143.413 31.267L145.964 31.3409C145.858 31.9129 145.625 32.411 145.266 32.8352C144.91 33.2557 144.442 33.5833 143.862 33.8182C143.283 34.0492 142.612 34.1648 141.851 34.1648Z" fill="white"/>
<defs>
<linearGradient id="paint0_linear_6607_195" x1="110" y1="0" x2="110" y2="56" gradientUnits="userSpaceOnUse">
<stop stop-color="#FFEB3C"/>
<stop offset="0.135" stop-color="#FF730E"/>
<stop offset="0.425" stop-color="#B3330A"/>
<stop offset="0.66" stop-color="#FFE600"/>
<stop offset="1" stop-color="#FF730E"/>
</linearGradient>
<linearGradient id="paint1_linear_6607_195" x1="110" y1="0" x2="110" y2="56" gradientUnits="userSpaceOnUse">
<stop stop-color="#FF730E"/>
<stop offset="0.295" stop-color="#C03900"/>
<stop offset="0.525" stop-color="#DBFF00"/>
<stop offset="0.97" stop-color="#CE7C00"/>
</linearGradient>
<linearGradient id="paint2_linear_6607_195" x1="110" y1="4" x2="110" y2="52" gradientUnits="userSpaceOnUse">
<stop stop-color="#BAFF27"/>
<stop offset="0.395" stop-color="#3FB715"/>
<stop offset="0.78" stop-color="#0E7206"/>
<stop offset="1" stop-color="#468A02"/>
</linearGradient>
<linearGradient id="paint3_linear_6607_195" x1="110" y1="7" x2="110" y2="35" gradientUnits="userSpaceOnUse">
<stop stop-color="white"/>
<stop offset="1" stop-color="white" stop-opacity="0"/>
</linearGradient>
</defs>
</svg>

<svg xmlns="http://www.w3.org/2000/svg" width="220" height="56" fill="none" xmlns:v="https://vecta.io/nano"><rect width="220" height="56" rx="28" fill="url(#A)"/><rect x="1" y="1" width="218" height="54" rx="27" stroke="url(#B)" stroke-width="2"/><rect x="4.5" y="4.5" width="211" height="47" rx="23.5" fill="url(#C)" stroke="#073300"/><rect x="15" y="7" width="190" height="28" rx="14" fill="url(#D)" style="mix-blend-mode:overlay"/><path d="M84.912 26.58h-2.841c-.038-.292-.115-.555-.233-.79s-.273-.436-.466-.602a1.99 1.99 0 0 0-.687-.381c-.261-.091-.551-.136-.869-.136-.564 0-1.051.138-1.46.415s-.718.676-.937 1.199-.324 1.155-.324 1.898c0 .773.11 1.421.329 1.943s.536.911.938 1.176.885.392 1.438.392c.311 0 .593-.04.847-.119s.483-.195.676-.347.358-.343.483-.562.218-.475.267-.756l2.841.017c-.049.515-.199 1.023-.449 1.523s-.585.956-1.017 1.369-.958.735-1.579.977-1.326.364-2.125.364c-1.053 0-1.996-.231-2.83-.693s-1.485-1.144-1.966-2.034-.722-1.973-.722-3.25.244-2.366.733-3.256 1.15-1.566 1.983-2.028 1.767-.693 2.801-.693c.704 0 1.356.099 1.954.296s1.125.477 1.58.852a4.36 4.36 0 0 1 1.108 1.369c.284.542.46 1.161.528 1.858zm5.683 7.585c-.917 0-1.705-.187-2.364-.562a3.88 3.88 0 0 1-1.517-1.58c-.352-.678-.528-1.464-.528-2.358s.176-1.684.528-2.358.862-1.204 1.517-1.579 1.447-.568 2.364-.568 1.703.189 2.358.568a3.79 3.79 0 0 1 1.517 1.579c.356.674.534 1.46.534 2.358s-.178 1.68-.534 2.358-.858 1.201-1.517 1.58-1.441.563-2.358.563zm.017-2.097c.333 0 .615-.102.847-.307s.407-.489.528-.852.188-.784.188-1.261c0-.485-.062-.909-.187-1.273s-.297-.648-.528-.852-.513-.307-.847-.307c-.345 0-.636.102-.875.307s-.415.489-.54.852-.182.788-.182 1.273c0 .477.061.898.182 1.261s.305.648.54.852.53.307.875.307zm8.594-3.045V34h-2.778v-8.727h2.642v1.602h.097a2.45 2.45 0 0 1 .989-1.256c.466-.307 1.021-.46 1.665-.46.613 0 1.145.138 1.596.415s.807.655 1.057 1.148.379 1.061.375 1.716V34h-2.778v-5.017c.003-.485-.12-.864-.37-1.136s-.589-.409-1.028-.409a1.52 1.52 0 0 0-.773.193 1.28 1.28 0 0 0-.511.54c-.117.235-.178.519-.182.852zm12.288-3.75v2.046h-5.505v-2.046h5.505zm-4.352-2.091h2.778v8.074a.93.93 0 0 0 .08.415c.057.102.138.176.244.221a1.04 1.04 0 0 0 .381.063c.106 0 .218-.009.335-.028l.273-.057.42 2.006-.562.142c-.239.057-.525.093-.858.108-.652.03-1.21-.045-1.676-.227s-.816-.474-1.063-.864-.36-.881-.352-1.472v-8.381zM112.912 34v-8.727h2.778V34h-2.778zm1.392-9.744c-.39 0-.725-.129-1.006-.386s-.42-.576-.42-.943a1.22 1.22 0 0 1 .42-.932c.281-.261.616-.392 1.006-.392a1.41 1.41 0 0 1 1.006.392 1.22 1.22 0 0 1 .42.932c0 .367-.14.682-.42.943s-.612.386-1.006.386zm5.933 4.767V34h-2.778v-8.727h2.642v1.602h.096c.194-.534.523-.953.989-1.256s1.021-.46 1.665-.46c.613 0 1.146.138 1.596.415s.807.655 1.057 1.148.379 1.061.375 1.716V34h-2.778v-5.017c.004-.485-.119-.864-.369-1.136s-.589-.409-1.029-.409a1.52 1.52 0 0 0-.773.193c-.219.125-.39.305-.511.54s-.178.519-.182.852zm12.993 1.21v-4.96h2.773V34h-2.648v-1.625h-.091a2.54 2.54 0 0 1-.988 1.273c-.463.311-1.021.466-1.677.466-.594 0-1.117-.136-1.568-.409s-.801-.653-1.051-1.142-.377-1.068-.381-1.727v-5.562h2.779v5.017c.004.474.129.847.375 1.119s.581.409 1.006.409c.276 0 .524-.061.744-.182s.399-.305.528-.54.199-.526.199-.864zm8.621 3.932c-.913 0-1.701-.18-2.364-.54a3.74 3.74 0 0 1-1.523-1.551c-.352-.674-.528-1.475-.528-2.403 0-.902.178-1.689.534-2.364s.858-1.204 1.506-1.579 1.411-.568 2.29-.568c.621 0 1.189.097 1.704.29s.96.479 1.335.858.667.847.875 1.403.313 1.188.313 1.903v.693h-7.585v-1.614h5a1.56 1.56 0 0 0-.211-.79 1.42 1.42 0 0 0-.562-.54c-.235-.133-.506-.199-.813-.199s-.589.07-.835.21a1.55 1.55 0 0 0-.585.563c-.144.235-.22.502-.227.801v1.642c0 .356.07.668.21.938s.339.472.597.619.564.222.92.222a2.07 2.07 0 0 0 .67-.102 1.42 1.42 0 0 0 .517-.301c.144-.133.252-.296.324-.489l2.551.074a3.16 3.16 0 0 1-.698 1.494c-.356.42-.824.748-1.404.983s-1.25.347-2.011.347z" fill="#fff"/><defs><linearGradient id="A" x1="110" y1="0" x2="110" y2="56" gradientUnits="userSpaceOnUse"><stop stop-color="#ffeb3c"/><stop offset=".135" stop-color="#ff730e"/><stop offset=".425" stop-color="#b3330a"/><stop offset=".66" stop-color="#ffe600"/><stop offset="1" stop-color="#ff730e"/></linearGradient><linearGradient id="B" x1="110" y1="0" x2="110" y2="56" gradientUnits="userSpaceOnUse"><stop stop-color="#ff730e"/><stop offset=".295" stop-color="#c03900"/><stop offset=".525" stop-color="#dbff00"/><stop offset=".97" stop-color="#ce7c00"/></linearGradient><linearGradient id="C" x1="110" y1="4" x2="110" y2="52" gradientUnits="userSpaceOnUse"><stop stop-color="#baff27"/><stop offset=".395" stop-color="#3fb715"/><stop offset=".78" stop-color="#0e7206"/><stop offset="1" stop-color="#468a02"/></linearGradient><linearGradient id="D" x1="110" y1="7" x2="110" y2="35" gradientUnits="userSpaceOnUse"><stop stop-color="#fff"/><stop offset="1" stop-color="#fff" stop-opacity="0"/></linearGradient></defs></svg>
